X:1
T:Kaunas, 11.11.11.11 D
T:Kaunas, 11.11.11.11 D
T:Charles Crozat Converse, 1886
T:Public Domain Courtesy of the Cyber Hymnal™
C:Charles Crozat Converse, 1886
Z:Public Domain
Z:Courtesy of the Cyber Hymnal™
%%score ( 1 2 ) ( 3 4 )
L:1/8
Q:1/4=115
M:3/4
K:D
V:1 treble 
V:2 treble 
V:3 bass 
V:4 bass 
V:1
 [FA]2 | [FA]3 [GB] [FA]2 | [FA]3 [EG] [DF]2 | [DF]2 [DF]2 [CE]2 | D4 [FA]2 | [Fd]2 [Fc]2 [GB]2 | %6
 [FA]3 [EG] [DF]2 | [DB]2 [DA]2 [DF]2 | [CE]4 [CE]2 | [CA]2 [CE]2 [EG]2 | [DF]2 [FA]2 [FA]2 | %11
 [GB]2 [Ge]2 [^Gd]2 | [Ac]4 [EB][EG] | [DF]2 [FA]3 [FA] | [GB]2 [GB]2 [GB]2 | [FA]2 [Fd]2 [Ec]2 | %16
 [Fd]4 [FA][FA] | [FA]4 [DF][FA] | [GB]4 [GB][GB] | [FA]4 [Fd]2 !fermata![Ec]4 [Ec]2 | %20
 [Fd]2 [FA]2 [FA]2 | [GB]2 !fermata![Gd]2 [GB]2 | [FA]2 [Fd]2 [Ec]2 | [Fd]4!pp! [FA][FA] | %24
 [FA]4 [DF][FA] | [GB]4 [GB][GB] | [FA]4 [Fd]2 | !fermata![Ec]4 [Ec]2 | [Fd]2 [FA]2 [FA]2 | %29
 [GB]2 !fermata![Gd]2 [GB]2 | [FA]2 [Fd]2 [Ec]2 | [Fd]4 |] %32
V:2
 x2 | x6 | x6 | x6 | D4 x2 | x6 | x6 | x6 | x6 | x6 | x6 | x6 | x6 | x6 | x6 | x6 | x6 | x6 | x6 | %19
 x12 | x6 | x6 | x6 | x6 | x6 | x6 | x6 | x6 | x6 | x6 | x6 | x4 |] %32
V:3
 [D,D]2 | [D,D]3 [D,D] [D,D]2 | [D,D]3 [D,A,] [D,A,]2 | [D,A,]2 [D,A,]2 [A,,G,]2 | %4
 [D,F,]4 [D,A,]2 | [D,A,]2 [D,A,]2 (B,C) | [D,D]3 [D,A,] [D,A,]2 | G,2 [F,A,]2 [D,A,]2 | %8
 [A,,A,]4 [A,,A,]2 | [A,,E,]2 [A,,A,]2 [A,,A,]2 | [D,A,]2 [D,D]2 [D,D]2 | [G,D]2 [G,B,]2 [E,E]2 | %12
 [A,E]4 [A,,C][A,,A,] | [D,A,]2 [D,D]3 [D,D] | [G,D]2 [G,D]2 [G,D]2 | [A,D]2 A,2 A,2 | %16
 [D,A,]4 [D,D][D,D] | [D,D]4 [D,A,][D,D] | [G,D]4 [G,D][G,D] | [D,D]4 [D,A,]2 !fermata!A,4 A,2 | %20
 [D,A,]2 [D,D]2 [D,D]2 | [G,D]2 !fermata![G,B,]2 [G,B,]2 | A,2 A,2 A,2 | [D,A,]4 [D,D][D,D] | %24
 [D,D]4 [D,A,][D,D] | [G,D]4 [G,D][G,D] | [D,D]4 [D,A,]2 | !fermata!A,4 A,2 | %28
 [D,A,]2 [D,D]2 [D,D]2 | [G,D]2 [G,B,]2 [G,D]2 | A,2 A,2 A,2 | [D,A,]4 |] %32
V:4
 x2 | x6 | x6 | x6 | x6 | x4 D,2 | x6 | G,2 x4 | x6 | x6 | x6 | x6 | x6 | x6 | x6 | x2 A,2 A,2 | %16
 x6 | x6 | x6 | x6 A,4 A,2 | x6 | x6 | A,2 A,2 A,2 | x6 | x6 | x6 | x6 | A,4 A,2 | x6 | x6 | %30
 A,2 A,2 A,2 | x4 |] %32

